X: 1
T: Mornings At Bonny Doon
M: 3/4
L: 1/8
R: waltz
K: Gmaj
|:DF GA Bd|c3 A Bd|GA BG EG| FG EF DC|
B,D GA Bd|c3 A Bd|GA BG DF|1G4 DC:|2 G4 D2||
|:A,D FG AB|d2 d(B c)A|A (3B/A/G/ FG AG|FE DC A,G,|
A,D FG AB|c3 AB d|GA BG DF|1 G4 D2:|2 G6||
